SF_Symbols/sparkles.rectangle.stack.fill.svg

<?xml version="1.0" encoding="UTF-8"?>
<svg xmlns="http://www.w3.org/2000/svg" xmlns:xlink="http://www.w3.org/1999/xlink" width="24" height="24" viewBox="0 0 24 24" version="1.1">
<g id="surface1">
<path style=" stroke:none;fill-rule:nonzero;fill:rgb(100%,100%,100%);fill-opacity:1;" d="M 4.457031 23.800781 L 19.53125 23.800781 C 20.578125 23.800781 21.367188 23.539062 21.894531 23.011719 C 22.429688 22.484375 22.699219 21.703125 22.699219 20.667969 L 22.699219 10.1875 C 22.699219 9.152344 22.429688 8.375 21.894531 7.855469 C 21.367188 7.328125 20.578125 7.0625 19.53125 7.0625 L 4.457031 7.0625 C 3.402344 7.0625 2.609375 7.328125 2.082031 7.855469 C 1.554688 8.375 1.292969 9.152344 1.292969 10.1875 L 1.292969 20.667969 C 1.292969 21.707031 1.554688 22.488281 2.082031 23.011719 C 2.609375 23.539062 3.402344 23.800781 4.457031 23.800781 Z M 3.28125 5.386719 L 20.71875 5.386719 C 20.636719 4.914062 20.46875 4.550781 20.21875 4.300781 C 19.976562 4.046875 19.59375 3.917969 19.074219 3.917969 L 4.925781 3.917969 C 4.40625 3.917969 4.019531 4.046875 3.769531 4.300781 C 3.519531 4.550781 3.359375 4.914062 3.28125 5.386719 Z M 5.425781 2.5 L 18.574219 2.5 C 18.539062 2.054688 18.394531 1.722656 18.144531 1.5 C 17.894531 1.269531 17.527344 1.15625 17.042969 1.15625 L 6.949219 1.15625 C 6.46875 1.15625 6.101562 1.269531 5.84375 1.5 C 5.59375 1.722656 5.453125 2.054688 5.425781 2.5 Z M 12.542969 19.75 C 12.304688 19.75 12.167969 19.632812 12.125 19.394531 C 12.015625 18.609375 11.886719 17.964844 11.738281 17.457031 C 11.601562 16.953125 11.390625 16.546875 11.113281 16.25 C 10.835938 15.953125 10.449219 15.726562 9.949219 15.574219 C 9.453125 15.421875 8.796875 15.300781 7.980469 15.21875 C 7.734375 15.183594 7.613281 15.050781 7.613281 14.824219 C 7.613281 14.601562 7.734375 14.472656 7.980469 14.4375 C 8.632812 14.347656 9.175781 14.246094 9.613281 14.136719 C 10.050781 14.015625 10.410156 13.867188 10.6875 13.6875 C 10.964844 13.5 11.1875 13.261719 11.355469 12.96875 C 11.519531 12.675781 11.660156 12.3125 11.769531 11.875 C 11.890625 11.429688 12.007812 10.890625 12.125 10.261719 C 12.1875 10.023438 12.328125 9.90625 12.542969 9.90625 C 12.757812 9.90625 12.886719 10.027344 12.925781 10.269531 C 13.015625 10.890625 13.113281 11.417969 13.21875 11.855469 C 13.328125 12.292969 13.472656 12.65625 13.644531 12.949219 C 13.820312 13.238281 14.046875 13.480469 14.332031 13.667969 C 14.625 13.855469 14.992188 14.007812 15.4375 14.125 C 15.882812 14.242188 16.433594 14.347656 17.09375 14.4375 C 17.328125 14.472656 17.449219 14.601562 17.449219 14.824219 C 17.449219 15.058594 17.328125 15.191406 17.09375 15.21875 C 16.433594 15.308594 15.886719 15.414062 15.449219 15.53125 C 15.011719 15.640625 14.652344 15.792969 14.375 15.980469 C 14.097656 16.160156 13.871094 16.398438 13.699219 16.699219 C 13.53125 16.988281 13.390625 17.359375 13.269531 17.800781 C 13.160156 18.238281 13.046875 18.773438 12.925781 19.40625 C 12.871094 19.636719 12.742188 19.75 12.542969 19.75 Z M 8.300781 21.5 C 8.15625 21.5 8.054688 21.410156 8 21.230469 C 7.921875 20.847656 7.859375 20.546875 7.8125 20.324219 C 7.765625 20.101562 7.6875 19.933594 7.582031 19.824219 C 7.484375 19.703125 7.328125 19.613281 7.105469 19.550781 C 6.882812 19.488281 6.558594 19.425781 6.136719 19.363281 C 5.953125 19.335938 5.863281 19.238281 5.863281 19.074219 C 5.863281 18.898438 5.949219 18.800781 6.113281 18.78125 C 6.546875 18.703125 6.871094 18.636719 7.09375 18.574219 C 7.324219 18.511719 7.484375 18.421875 7.582031 18.300781 C 7.6875 18.183594 7.765625 18.015625 7.8125 17.800781 C 7.859375 17.578125 7.921875 17.277344 8 16.894531 C 8.054688 16.714844 8.15625 16.625 8.300781 16.625 C 8.453125 16.625 8.554688 16.714844 8.605469 16.894531 C 8.679688 17.277344 8.742188 17.578125 8.792969 17.800781 C 8.839844 18.015625 8.917969 18.183594 9.019531 18.300781 C 9.125 18.421875 9.292969 18.511719 9.519531 18.574219 C 9.75 18.636719 10.078125 18.703125 10.5 18.78125 C 10.671875 18.800781 10.761719 18.898438 10.761719 19.074219 C 10.761719 19.234375 10.671875 19.328125 10.5 19.363281 C 10.078125 19.425781 9.75 19.488281 9.519531 19.550781 C 9.292969 19.613281 9.125 19.703125 9.019531 19.824219 C 8.917969 19.941406 8.839844 20.109375 8.792969 20.332031 C 8.742188 20.554688 8.679688 20.863281 8.605469 21.261719 C 8.5625 21.421875 8.460938 21.5 8.300781 21.5 Z M 8.300781 21.5 "/>
</g>
</svg>

<svg xmlns="http://www.w3.org/2000/svg" width="24" height="24"><path style="stroke:none;fill-rule:nonzero;fill:#fff;fill-opacity:1" d="M4.457 23.8h15.074c1.047 0 1.836-.26 2.364-.788.535-.528.804-1.309.804-2.344v-10.48c0-1.036-.27-1.813-.804-2.333-.528-.527-1.317-.793-2.364-.793H4.457c-1.055 0-1.848.266-2.375.793-.527.52-.789 1.297-.789 2.332v10.481c0 1.039.262 1.82.789 2.344.527.527 1.32.789 2.375.789ZM3.281 5.388H20.72c-.082-.473-.25-.836-.5-1.086-.242-.254-.625-.383-1.145-.383H4.926c-.52 0-.906.129-1.156.383-.25.25-.41.613-.489 1.086ZM5.426 2.5h13.148c-.035-.445-.18-.777-.43-1-.25-.23-.617-.344-1.101-.344H6.949c-.48 0-.847.114-1.105.344-.25.223-.39.555-.418 1Zm7.117 17.25c-.238 0-.375-.117-.418-.355-.11-.786-.238-1.43-.387-1.938-.136-.504-.347-.91-.625-1.207-.277-.297-.664-.523-1.164-.676-.496-.152-1.152-.273-1.969-.355-.246-.035-.367-.168-.367-.395 0-.222.121-.351.367-.386.653-.09 1.196-.192 1.633-.301.438-.121.797-.27 1.075-.45.277-.187.5-.425.667-.718a4.51 4.51 0 0 0 .415-1.094c.12-.445.238-.984.355-1.613.063-.239.203-.356.418-.356.215 0 .344.121.383.364.09.62.187 1.148.293 1.585.11.438.254.801.426 1.094.175.29.402.531.687.719.293.187.66.34 1.105.457.446.117.997.223 1.657.313.234.035.355.164.355.386 0 .235-.12.367-.355.395-.66.09-1.207.195-1.645.312-.437.11-.797.262-1.074.45-.281.18-.512.43-.676.718-.168.29-.308.66-.43 1.102-.109.437-.222.972-.343 1.605-.055.23-.184.344-.383.344ZM8.301 21.5c-.145 0-.246-.09-.301-.27-.078-.382-.14-.683-.188-.906-.046-.222-.125-.39-.23-.5-.098-.12-.254-.21-.477-.273a8.155 8.155 0 0 0-.968-.188c-.184-.027-.274-.125-.274-.289 0-.176.086-.273.25-.293.434-.078.758-.144.98-.207.231-.062.391-.152.489-.273.106-.117.184-.285.23-.5.047-.223.11-.524.188-.906.055-.18.156-.27.3-.27.153 0 .255.09.305.27.075.382.137.683.188.906.047.215.125.383.227.5.105.12.273.21.5.273.23.063.558.13.98.207.172.02.262.117.262.293 0 .16-.09.254-.262.29-.422.062-.75.124-.98.187-.227.062-.395.152-.5.273-.102.117-.18.285-.227.508-.05.223-.113.531-.188.93-.043.16-.144.238-.304.238Zm0 0"/></svg>
